X:1
T:Johnny with the Bandy Legs
M:4/4
L:1/4
K:G
 D D| G G G G| G G F G| A2 D D| D2 D D| A A A A| A A G A| B2 D D| D2 B B|\
 c c c c| c2 c c| B B B A| G2 D D| D D D D| D D E F| G2 z2| z2 D2|\
 B, D G F| E3/2 E/2 E E| D/2D/2 F/2F/2 A F| G3 B| B D G F| E3/2 E/2 E E|\
 D/2D/2 F/2F/2 A F| G3 z| B z G z| D G/2B/2 d B| c z A z| D F/2A/2 d c|\
 B G/2G/2 G/2G/2 G/2G/2| E3/2 E/2 E E| D/2D/2 F/2F/2 A F| G2||
